X:1
T:The Nightingale
T:П. Шаmuкoũ Variations                            The Nightingale on the theme "The Nightingale" by А. Alyabyev                         Romance d' Alabieff variée (1833)
C:Glinka
%%score { ( 1 3 4 ) | ( 2 5 ) }
L:1/8
Q:1/4=120
M:4/4
K:G
V:1 treble nm="Piano" snm="Pno."
V:3 treble 
V:4 treble 
V:2 bass 
V:5 bass 
V:1
!f!"^Adagio" !arpeggio![Begb]2 z2 z4 | !arpeggio![ceac']2 z2 z4 |"^sostenuto"!p! !>!B8- | B8 || %4
[M:2/4][Q:1/4=108]"^Andante con grazia e legato""^Thème"!p! (g2 f2 | e2 f2 | B2 ^c^d | e2) z2 | %8
 (d2 ed | B2 ed | AB/c/BA | G3) z | (B2 ^c^d | e2 fg) | (Agfe) | (e2 d2) | (^cd/e/ dc | %17
 B3)"^calando" (B | !turn!B2 ^c^d | e3) !fermata!z ||[Q:1/4=120]"^Più mosso" (f2 gf | e2 B2) | %22
 (f2 gf | e4) | (e2 dc | [GB]2 [Ec]2 | [GB]2 [A,^D]2 | [G,E]2) z2 | (F2 GF | E2 B) z | (F2 GF | %31
 E4- | E2) (e2- | [Ee-]2 e/c/A/F/ | !>!B2) !>!^D2 | !>!E4- | E2 (!>!G2- | G2 F2) | z2 [B,^DFB]2 || %39
[M:2/4]"^Var.I"[Q:1/4=120]"^Tempo I" z b- b/"^legato e dolce"(c'/a/f/- | f/)(g/e/B/ d/c/B/A/) | %41
 (A/G/F/E/ B)(^C/^D/ | [G,B,E]3) z | [FA]2 (=ed | [GB]2) (ed) | (AB/c/ BA | G2) z2 | %47
 z/{Bc} (B/^A/B/ c/!<(!^c/d/^d/ |({ef)} e/^d/e/f/({ga)} g/f/g/!<)!^g/ | %49
!p!({ab)} a/^g/a/g'/ e'/^c'/=g/!3!e/) | (!2!e/d/d'/a/ f/d/A/F/) | (B/^c/d/e/ d/F/c/E/ | %52
 B/)(B,/^D/F/ ^A/B/^d/f/ |!8va(! ^a/b/^d'/f'/ ^a'/b'/^c''/^d''/ | [g'b'e''])!8va)! z !>![Bb]2 | %55
[Q:1/4=120]"^Più mosso" (f2 gf | e3/2) z/ !>!b2 | (f2 gf | e4) | (e2 dc | B2 c2) | (B2 F2 | %62
 E2) z2 | (F2 GF | E2 B) z | (F2 GF | E4- | E2) (e2- | e2- e/c/A/F/ | !>!B2) !>!^D2 | !>!E4- | %71
 E2 (!>!G2- | G2 F) z | z2 [B,^DFB] z || %74
[M:2/4][Q:1/4=92]"^Var. II" z (!arpeggio![gbe'g'-] (6:4:6g'/f'/^d'/c'/a/f/ | %75
 .e) !arpeggio![EGBe-] (6:4:6e/c/A/F/E/C/ | .B, z (!>![^DFB^d]2 | .[EGBe]) [G,B,E] z2 | %78
 z (A/4F/4C/4A,/4)"_m.s."[I:staff +1] (!>!ED) |[I:staff -1] z (B/4G/4D/4B,/4)[I:staff +1] (!>!ED) | %80
[I:staff -1] z[K:bass] (D,/4F,/4A,/4C/4)[I:staff +1] (!>!B,A,) |[I:staff -1] z [B,,D,G,] z2 | %82
[K:treble] z (f'/4^d'/4b/4f/4) z .[Bfab] | z (g'/4e'/4b/4g/4) z .[Begb] | %84
 z (e'/4^c'/4a/4e/4) z .[A^cga] | z (a/4f/4d/4A/4) z .[dfad'] | %86
 z (3([e'g']/^c'/b/ (3^a/g/f/ (3e/d/^c/) | (3(B/^c/B/ (3^A/B/^d/ (3f/b/^d'/!8va(! (3f'/b'/b'/ | %88
 (3b'/b'/b'/ (3b'/b'/b'/ (3b'/c''/b'/ (3a'/f'/g'/) | (e'2 [e'g'b'e''])!8va)! z || %90
[M:12/16][Q:1/4=92]"^Più mosso" f3/2 gf/ e3/2bg/ | f3/2 gf/ e3/2b3/2 | e3/2 dc/ B3/2c3/2 | %93
 B3/2^D3/2 (E/B,/E/G/B/e/) | f3/2 gf/ e3/2bg/ | f3/2 gf/ e3/2b3/2 | e3/2!>!^g3/2 a3/2!>!^a3/2 | %97
 (b/g'/b/ =a/f'/a/ e'/b/g/ e/B/G/ | E/) z/ z/ (D/E/D/ C/) z/ z/ (B,/C/B,/) | !>!A,3 !>!B,3 || %100
[K:E][M:2/4][Q:1/4=100]"^Cantabile""^Var. III"!mf!{/G,} ([G,G]2"^espressivo ma semplice" F2 | %101
 !turn!E2 GF | B,2{B,D} CB, | E3) z |!p! (G2 AG) | (c2 A!<(!!2!G- | d!<)!!>(!e/f/ ed!>)! | c2) z2 | %108
!mf!{/C} ([Cc]2 B2 | !turn!A2 cB | E2{EG} FE | A3) z |!p! (c2 =dc | f2 =d!<(!!2!c- | %114
 g!<)!a/b/!>(! ag!>)! | f3) z |"^con abbandono"!<(! (!turn!f2 g!<)!a) |!>(! (a2!>)! B) z | %118
!pp!!8va(! (^e'/4f'/4a'/4g'/4f'/4=e'/4d'/4c'/4 b/4^b/4d'/4c'/4=b/4a/4g/4!2!^^f/4) | %119
 ^^fg/ z/ z!<(! (g!<)! | !turn!c'2 d'!1!e') | %121
!f! .e'/.e/(!>!=g'-!pp!"^leggiero e veloce" (6:4:6g'/8e'/8^c'/8^a/8=g/8f/8 e/)!8va)! z/ (6:4:6(=g/8e/8c/8^A/8=G/8F/8 | %122
 .E) (!>!=G2 ^A, | B,) z z2 |"_dolce""^a tempo""^abbandonando la mano 1)"{/B} fz/(B/g)z/(f/ | %125
 e)z/(B/b)z/(g/ | f)z/(B/g)z/(f/ | e2) z3/2 (B/ | e)z/(e/e')z/!8va(!(e'/ | e'')z/(e''/e')z/(e'/ | %130
 b')z/(b'/b)z/(b/ | e'3) z | z3/2 b/{/d'} c'z/(b/ | b') (Tb'3 | %134
 (6:4:6^a'/b'/d''/c''/b'/=a'/ (6:4:6g'/f'/e'/d'/c'/=c'/ | %135
 b2)!8va)! z"^legato con molta grazia" (b | b>a (3agf | (3fed"^lunga" (3fec) | (3(c{Bc}B^A (3Bgf | %139
 e4) | (3z"^poco a poco ritenuto" (.e'.e' (3.e'.e'.e') | (e'2- (3e'fc') | (3(c'db(3bda | %143
{gab} ag) z2 | (3z[Q:1/4=120]"^poco a poco ritenuto" (.e.e (3.e.e.e) | (e2- (3eF=c) | %146
[Q:1/4=120]"^lento" (=c2 B) ||[K:G][M:6/8][Q:1/4=104]"^Con brio""^Var. IV"!f! b | %148
 !arpeggio![gbe'g'] z z [fb^d'f'] z z | ([e-be'-]3 [ec'e']2 [ff']) | ([Begb-]3 [^dfb]2 ^c'/^d'/ | %151
 [egbe']3) z/ (e/^d/e/g/b/) | %152
"^legato"!p!!8va(! (!4!e'/!3!=d'/!2!^c'/!3!d'/!4!e'/!1!d'/ !5!e''/!4!d''/!3!=c''/!1!a'/!3!f'/!2!d'/) | %153
 (e'/d'/^c'/d'/e'/d'/ !5!e''/!4!d''/!2!b'/!1!g'/!4!e'/!3!d'/) | %154
 (!2!^c'/!1!d'/!5!=c''/a'/f'/d'/!8va)! =c'/a/"_cresc."f/d/c/A/ | %155
 G/g/d/B/G/D/[K:bass] B,/G,/D,/B,,/G,,/D,,/) |!f! z2[K:treble] [B,B] (b2 a) | (a3 g) z z | %158
 (A/^G/A/B/^c/d/ e/f/=g/a/b/^c'/ | d'/d/e/f/g/a/!8va(! b/^c'/d'/^d'/e'/f'/) | %160
 (g'/f'/e'/=d'/^c'/b/!8va)!"_dim." ^a/g/f/e/d/^c/) | (B/^A/B/c/^c/d/ ^d/e/^e/f/g/^g/ | %162
!8va(! a/^a/b/c'/^c'/d'/ ^d'/e'/^e'/f'/b'/b/ | =e'2)!8va)! z/"^Coda" (B/!<(! c/^c/d/^d/e/^e/!<)! | %164
 f) z (!2!f{!2!f!4!a)} !3!g z (f | !arpeggio![Begb]) z z/ (B/ c/^c/d/^d/e/^e/ | %166
 f) z (f{fa} g) z (f | !arpeggio![Begb]) z z/ (e/!<(! ^e/f/g/^g/a/^a/!<)! | b) z (b{bd'} c') z (b | %169
 !arpeggio![eac'e']) z z/ (e/ ^e/f/g/^g/a/^a/ | b) z (b({bd')} c') z (b | %171
 !arpeggio![eac'e']) z z/"_cresc." (a/ ^a/!<(!b/c'/^c'/d'/^d'/!<)! | %172
 [gbe']/) z z/!f!!<(! (b/ c'/^c'/d'/^d'/e'/^e'/f'/!<)! | [g^c'g']) z z z2 z | %174
 z2 z z2 z/[K:bass]!p! [G,^CE]/ | [F,=C^D] z z [E,B,E] z z | [E,F,C] z z z2 z | %177
 [^D,F,B,] z z z2 z ||[M:2/4][K:treble][Q:1/4=138]"^( )"!p! (g2 f2 | e2 f2 | %180
 B2)"^pesante" !>![Bb]2 | e3 z | (g2 f2 | e2 f2 | B2)"^pesante" (!>![Bb]2 | e3) z | z2!<(! (e2 | %187
!>(!{efg} f2!<)! e) z!>)! | z2!<(! (e2 |!>(!{efg} f2!<)! e) z!>)! | z2 c2- | %191
"^pesante" (!>![cc']2"_dim." [Bb]) z |[Q:1/4=120]"^rallentendo assai" z2 c2- | [cc']2!pp! [Bb]2 || %194
[K:E][Q:1/4=120]"^a tempo" ([Gg]4 | e2 f2 | B2{Bd} cB | e2) z2 | ([Gg]4 | e2 c'2 | %200
 !invertedturn!f2 ba | [Gg]4) | ([Ee]2 dc | B2 ec' | b3 a/f/) | %205
[Q:1/4=120]"^brillante e poco più vivo" (e2- e/d/e/c'/ | b2- b/^a/b/f'/ |!8va(! e'2- e'/d'/e'/a'/ | %208
 g'/^^f'/g'/c''/ b'/^a'/b'/e''/) | (e''2- e''/d''/d'/d''/) | (d''2- d''/c''/e'/c''/) | %211
 (c''/b'/^e'/f'/ g'/f'/a'/f'/ | d'/b/^b/c'/!8va)! g/a/f/=b/ | e)z/(3(!>!B/4c/4B/4 ^A/B/g/d/ | %214
 e)z/(3(!>!e/4f/4e/4 d/e/c'/^a/ | b)z/!8va(!(3(!>!b/4c'/4b/4 ^a/b/c'/d'/ | %216
"_cresc." e'/f'/g'/a'/ b'/c''/d''/e''/ | .e')"_slanciato 1)"(b'/^a'/ !>!e''/e'/b'/=a'/ | %218
 !>!e''/e'/a'/g'/ !>!e''/e'/a'/=g'/ |!ff! =c'')(!>!c''/b'/ c''/b'/a'/=g'/ | %220
 f'/e'/d'/=c'/!8va)! b/a/=g/f/ ||[K:G]!p! .e) z z/ x/ x/ g/ | f>f g>f | (e2 b3/2) g/ | f>f g>f | %225
 (e2 b) z | c'2 d'c' | a2 a^a | b2"_cresc." c'b | g2 g^g | a2 ba | f2 x2 |!f! (!>!g2 gf | %233
 g2- g e) | (!>!e>^d !>!f>e | d>c x2 | E)!pp! z z/!8va(! x/ x/ g'/ | f'>f' g'>f' | %238
 (e'2 b'3/2) g'/ | f'>f' g'>f' | (e'2 b') z | c''2 d''c'' | a'2 a'^a' | b'2 c''b' | g'2 g'^g' | %245
 a'2 b'"_cresc."a' | f'2 x2 | !>!g'2 g'e' | !>!a'2 a'f' | (!>!b'/b/d'/=f'/ b'/b/e'/b/) | %250
 (!>!b'/b/d'/=f'/ b'/b/e'/b/) |!pp! x/ x/ e'' ^d''=d'' | ^c''=c''a'=f'!8va)! | %253
 (!>!c'>b c'/b/^a/=a/ | ^g/=g/!<(!f/=f/ e/^d/=d/^c/)!<)! |"_cresc." (=c/B/c/B/ c/B/A/G/ | %256
 F/E/^D/C/[K:bass] B,/A,/G,/F,/ |!f! E,) z z/[K:treble]!p! B,/E/G/ | B2 c>B | ^A2 e2 | %260
 x/ x/ x/ A/ B>A | ^G2 x2 | x/ x/ x/ G/ A>G | F2 c2 | z/ (B,/^D/F/ B/B,/D/B/) | %265
 z/ (G,/B,/E/ G/E/B,/G,/) |[K:bass]!pp! z/ (D,/^G,/B,/ z/ D,/G,/B,/) | %267
 z/ (^C,/E,/^A,/ z/ C,/E,/A,/) | z/ (=C,/E,/=A,/ z/ C,/E,/A,/) | z/ (B,,/E,/^G,/ z/ B,,/E,/G,/) | %270
 z/ (B,,/E,/G,/ z/ B,,/E,/G,/) | z/ (C,/E,/F,/ z/ C,/E,/F,/) | z/ (B,,/^D,/F,/ z/ B,,/D,/F,/) | %273
 z/ (C,/E,/F,/ z/ C,/E,/F,/) | z/ (B,,/^D,/F,/ z/ B,,/D,/F,/) | %275
!ppp![Q:1/4=120]"^rit. assai" z/ (C,/E,/F,/ z/ C,/E,/F,/) | z/ (.B,,/.^D,/.F,/) !fermata!z2 || %277
[M:4/4][Q:1/4=76]"^Vivace" x6"_cresc." !>!G>F | E2[K:treble] x4 g>f | e2 b2 e'2 =f'2 | %280
 e'/b/g/e/ B/G/E/B,/ z2!ff!!8va(! [fb^d'f'] z | %281
 (!>![g^c'e'g']3 [f=c'f']) .[be'b'] z .[c'e'f'c''] z | %282
 !arpeggio!.[be'g'b']2!8va)! z2 !arpeggio![FAB^d]2 z2 | [EGBe]4 z2 z3/2 [G,B,E]/ | %284
 !fermata![G,B,E]8 |] %285
V:2
 !arpeggio![E,G,B,E]2 z2 z4 | !arpeggio![A,,C,E,A,]2 z2 z4 | [B,,,B,,]8- | !fermata![B,,,B,,]8 || %4
[M:2/4]"^legato" E,[B,E]F,[A,B,^D] | G,[B,E]A,[CF] |[K:treble] B,[EG]B,[FA] | %7
[K:bass] E,[B,E]G,[B,E] | F,[DA]C[DA] | G,[DG]B,[DG] | D,[DF]C[DF] | G,DB,D | F,[B,^D]A,[B,D] | %13
 E,[B,E]G,[B,E] | A,,[^CE]A,[CG] | D,[DF]F,[A,D] | E,[B,^C] F,[^A,E] | %17
!ped! B,,[K:treble] B,[^DF]B, | [FA]B,[FA]B,!ped-up! |[K:bass]!ped! E,B,[EG] !fermata!z!ped-up! || %20
"^legato assai" (B,,B,^DB, | E,B,EB,) | (B,,B,^DB, | E,B,EB,) | (E,,E,F,,F, | G,,G,A,,A, | %26
 B,,B,B,,B, | E,,).B,.B,.B, | B,,.B,.B,.B, | E,.B,.B,.B, | B,,.B,.B,.B, | %31
 z"_marcato assai" .E,.=D,.E, | .C,.E,.B,,.E, | A,,.F,.E,.F, | .B,,.A,.F,.A, | .C,.G,!<(!.E,.C, | %36
 .G,,.E,,!<)!.C,,.B,,, | !>!A,,,4 | !>!B,,,4 ||[M:2/4]"^ten." (!arpeggio!G2 !arpeggio!F2 | %40
 !arpeggio!E3 F) | (!arpeggio![E,G,B,]2 B,,) z | z (E,,/G,,/ B,,/E,/G,/B,/ | %43
 !>!C) (^C,/"_1)"D,/ !1!^E,/!4!F,/^G,/A,/ | !>!D) (^C,,/D,,/ F,,/G,,/^A,,/B,,/) | %45
 (!5!=C,/E,/^G,/A,/ D,/F,/D/C/) | (B,/=G,/D/^C/ !>!E/D/B,/G,/) | B,4- | B,2 E2- | E4 | D4 | %51
 ([E,B,]2 [F,^A,]2) | B,B,, z[K:treble] B, | B4- | B z z2 | %55
"_1) In the autograph, these are applied by the hand of Glinka" z (B,BA | G!1!E[K:bass]B,E,) | %57
 z[K:treble] (B,BA | GEB,G,) |[K:bass] (E,2 F,2 | G,2 A,2 | B,2) (B,,2 | E,).B,.B,.B, | %63
 B,,.B,.B,.B, | E,.B,.B,.B, | B,,.B,.B,.B, | z .E,.=D,.E, | .C,.E,.B,,.E, | .A,,.F,.E,.F, | %69
 .B,,.A,.F,.A, | .C,.G,!<(!.E,.C, | .G,,.E,,.C,,!<)!.B,,, | !>!A,,,4 | !>!B,,,4 || %74
[M:2/4]!f! .[E,,E,].[E,G,] .[F,,F,].[F,A,] | .[G,,G,].[G,B,] .[A,,A,].[A,C] | %76
 z (!arpeggio![B,,E,G,B,-] (6:4:6B,/^F,/^D,/B,,/A,,/F,,/ | .E,,) [E,,E,] z2 | %78
 D,, z"_ben sostenuto\nimitando il violoncello" F,2 | G,, z G,2 | D,, z [D,F,]2 | (G,,2 G,,,) z | %82
"_cantabile"{B,,^D,F,} (B,2 ^C^D) |{/E,} (E2 FG) | (A,!>!GFE) | (E2 D) z | ^C4 | %87
 ([B,^D]F) z!ped! [B,,,B,,] |[K:treble] [B,^D][DF][FB][B^d] | (e2 [EGBe])!ped-up! z || %90
[M:12/16][K:bass] [B,,,B,,]3/2 (!>!^D3/2E3/2G3/2) | B,,3/2 (!>!^D3/2E3/2G3/2) | %92
 (E,3/2F,3/2G,3/2[A,,A,]3/2) | B,,3/2B,,,3/2 E,,3/2 z3/2 | B,,3/2[K:treble] (!>!^d'3/2e'3/2g'3/2) | %95
 B,3/2 (^d'3/2e'3/2g'3/2) | E3/2(!>!=d3/2^c3/2)(!>!=c3/2 | B3/2)(B,3/2 E3/2) z3/2 | %98
 z3/2[K:bass] ([D,,D,]>[C,,C,]) z/ z/ [B,,,B,,]3/2 | !>![A,,,A,,]3 !>![B,,,B,,]3 || %100
[K:E][M:2/4]!p! (3E,,G,,B,, (3D,,G,,^B,, | (3C,,G,,C, (3A,,C,F, | (3B,,E,G, (3B,,D,A, | %103
 (3(E,,E,G, (3B,G,E,) | (6:4:6(D,F,G,^B,F,G,) | (6:4:6(C,E,G,CE,G,) |!ped! (6:4:6(G,,F,G,^B,F,G,) | %107
 (6:4:6(C,E,G,CE,G,)!ped-up! | (3(A,,C,E, (3G,,C,^E, | (3F,,C,F, (3=D,F,B, | (3E,A,C (3E,G,=D) | %111
 (3(A,,A,C (3ECA,) | (6:4:6(G,B,C^EB,C) | (6:4:6(F,A,CFA,C) | (6:4:6(C,B,C^ECB,) | %115
 (6:4:6(F,A,CFA,C) | (6:4:6(E,A,CE,A,=C) | (6:4:6(D,A,B,FA,B,) | (3(B,,A,B, (3FDB,) | %119
 (3(E,B,E (3D,G,^B,) | (3(E,G,C(3E,=G,C) | [^A,,E,=G,C]4- | [A,,E,G,C] z z2 | %123
 (3B,,(.B,.B, (3.B,.B,.B,) | %124
"_1) Abbandonando la mano - taking off, literally: releasing the hand on the pause. In the autograph initially: con abbandono." (6:4:6(A,B,DFDB,) | %125
[K:treble] (6:4:6(G,B,EGEB,) | (6:4:6(A,B,DFDB,) | (6:4:6(G,B,EGEB,) | (3(EGB (3=DEG | %129
 (3CEA (3=CE^A) | (3(B,GB) (3(B,DA) |[K:bass] (6:4:6(E,B,EGB,E) | (6:4:6(A,B,DFDB,) | %133
 (6:4:6(G,B,^^C^EB,C) | (6:4:6(A,B,DFDB,) | (6:4:6(G,B,^^C^EB,C) | %136
[K:treble]!ped! (6:4:6A,^CFAFC!ped-up! |[K:bass]"_ten."!ped! (6:4:6(^A,,E,=G,CG,E,)!ped-up! | %138
 (3(B,,E,^G,) (3(B,,D,A,) |!ped! (6:4:6(C,E,G,CE,G,)!ped-up! | %140
!ped! (6:4:6(^A,,E,=G,CE,G,)!ped-up! |!ped! (6:4:6(B,,E,F,A,E,F,)!ped-up! | (6:4:6(B,,D,F,A,D,F,) | %143
!ped! (6:4:6(C,E,G,CE,G,)!ped-up! |"_ten."!ped! (6:4:6(^A,,E,=G,CE,G,)!ped-up! | %145
!ped! (6:4:6(B,,E,F,A,E,F,) | [B,,D,A,]3!ped-up! ||[K:G][M:6/8] z | %148
 (E,,^A,,/B,,/A,,/B,,/ A,,/B,,/^C,/^D,/E,/F,/ | G,)(F,/G,/F,/G,/ A,/^G,/A,/F,/=G,/A,/) | %150
 (B,,/E,/G,/B,/[K:treble]E/G/ B/c/B/A/G/F/) |[K:bass] (E/^D/E/B,/G,/E,/ E,,) z2 | %152
 .F,.=C.D !>!A2 z | .G,.B,.D !>!G2 z | .D,.C.D !>!F2 z | G,2 z z2 z | %156
 (B,,,/^A,,,/B,,,/^C,,/^D,,/E,,/ F,,/G,,/=A,,/B,,/^C,/^D,/ | E,/^D,/E,/F,/G,/A,/ B,/^C/^D/E/^E/F/ | %158
 .G) z .[A,,A,][K:treble] (!>!A2 G) | (!>!G3 F) z z |[K:bass] (^C2 G) (F2 E) | %161
 E^D"_1)"!ped! .F .D.B,.F, | .^D,.B,,.F,, .^D,,.B,,,!ped-up! z | %163
"_1) In the autograph, the \n\n sign is written between the lines and is not very legible, which led to an obvious misprint in \ndowngraded and subsequent editions, where it is interpreted as  ." .E,, z z z2 z | %164
 (E,/A,/=C/F/C/A,/ ^D,/A,/B,/F/B,/A,/) | (E,/G,/B,/E/G) z2 z | %166
 (E,/A,/=C/F/C/A,/ ^D,/A,/B,/F/B,/A,/) | (E,/G,/B,/E/G) z2 z | %168
[K:treble] (A,/D/=F/B/F/D/ ^G,/D/E/B/E/D/ | A,/C/E/A/c) z2 z | (A,/D/=F/B/F/D/ ^G,/D/E/B/E/D/) | %171
 (A,/C/E/A/c) z2 z | (B,/E/G/B/e) z2 z | !arpeggio![^A,EG^c] z z z2 z | %174
 z2 z z2 z/[K:bass] [^A,,,^A,,]/ | [=A,,,=A,,] z z [G,,,G,,] z z | [A,,,A,,] z z z2 z | %177
 [B,,,B,,] z z z2 z ||[M:2/4] E,G,E,[F,A,] | E,[G,B,]E,[A,C] | E,[G,B,]E,[F,B,^D] | %181
 E,[G,B,E]E,[G,B,] | E,G,E,[F,A,] | E,[G,B,]E,[A,C] | E,[G,B,]E,[F,B,^D] | %185
!>(! (E,[G,B,E]=D,[G,B,]!>)! | C,[E,G,]B,,[E,G,] | A,,[C,E,]G,,[B,,E,]) | %188
!<(! (C,[E,G,]B,,[E,G,]!<)! | A,,[C,E,]G,,[B,,E,]) | (F,,[A,,^D,]E,,[A,,E,] | %191
 ^D,,[A,,F,]E,,[G,,E,]) | (F,,[A,,^D,]E,,[A,,E,] | ^D,,[A,,F,]D,,[B,,F,]) || %194
[K:E]"^con molto  grazia e legato" E,[G,B,]D,[G,^B,] | C,[G,C]A,[CF] | B,[DF]A,[DF] | G,[B,E]F,B, | %198
 E,[G,B,]D,[G,^B,] | C,[G,C]^A,,[E,=G,C] | B,,[F,B,]D,[F,B,] | ^B,,[F,G,]D,[F,G,] | %202
 (^A,,[=G,C]E,[G,C]) | (B,,[B,E]^G,[B,E]) | (B,,[B,D]A,[B,D]) | E,[G,B,]B,,[G,B,] | %206
 E,[G,B,]B,,[G,B,] | E,[G,B,]B,,[G,B,] | E,[G,B,]B,,[G,B,] | F,[A,B,]B,,[A,B,] | %210
 E,[A,B,]B,,[A,B,] | D,[A,B,]B,,[A,B,] | C,[A,B,]D,[A,B,] | E,[G,B,]B,,[G,B,] | E,[G,B,]B,,[G,B,] | %215
 E,[G,B,]B,,[G,B,] | E,[G,B,]B,,[G,B,] |"_1) With a rush" C,[E,^A,]=C,[E,=A,] | %218
 B,,[E,G,]^A,,[E,=G,] | =A,,F,E,F, | B,,B,[D,F,]B, ||[K:G] .E,,(G,B,E) | (^A,^C=C=A,) | (G,B,EB,) | %224
 (^A,^C=C=A,) | (G,B,EB,) | .A,,.C.A,.E, | .D,,.C.F,.D, | .G,,.B,.G,.D, | .C,,.B,.G,.C, | %230
 .F,,.A,.F,.C, | .B,,,.A,.^D,.B,, |!ped! !>!^A,,,.G,.E,.^C,!ped-up! | ^A,,.^C.G,.E, | %234
 =A,,=C, G,,B,, | A,,F, B,,F, | E,,[K:treble] (GBe) | (^A^c=c=A) | (GBeB) | (^A^c=c=A) | (GBeB) | %241
 !>!A,.c.A.E |[K:bass] !>!D,[K:treble] .c.F.D | !>!G,BGD |[K:bass] !>!C,[K:treble] .B.E.C | %245
[K:bass] !>!F,[K:treble] .A.F.C |[K:bass] B,,[K:treble] .A.^D.B, | ^A,.=G.E.^C | =A,.F.^D.=C | %249
 ^G,.B.E.D | ^G,.B.E.D | (A,.C.E.A) | (A,C=FA) | (B,EGB) | .B,.E.G z |[K:bass] (B,,^D,F,B,) | %256
 .B,,.^D,.F, z | E,,B,,E, z | (E,,E, !>!D2) | (E,,E, !>!^C2) | (E,,E, !>!=C2) | (E,,E, !>!B,2) | %262
 (E,,E, !>!^A,2) | (E,,E, !>!=A,2) | (E,,E, !>!A,2) | (E,,E,) z2 | %266
 E,, z"^m.s."[I:staff -1] C[I:staff +1] z | E,, z[I:staff -1] E[I:staff +1] z | %268
 E,, z[I:staff -1] B,[I:staff +1] z | E,, z[I:staff -1] E[I:staff +1] z | %270
 E,, z[I:staff -1] A,[I:staff +1] z | A,, z[I:staff -1] C[I:staff +1] z | %272
 B,, z[I:staff -1] B,[I:staff +1] z | A,, z"^calando"[I:staff -1] C[I:staff +1] z | %274
 B,, z[I:staff -1] B,[I:staff +1] z | A,,, z[I:staff -1] C[I:staff +1] z | B,,, z !fermata!B,2 || %277
[M:4/4] !>!E,,2 z .B,, .G,,.E,, !>!B,,,2 | !>!E,,2 z .B, .G,.E, !>!B,,2 | %279
"_pesante" !>![E,,E,]2 !>![=D,,D,]2 !>![C,,C,]2 !>![A,,,A,,]2 | [B,,,B,,]4 .B,,, z .[B,,,B,,]2 | %281
 (!>![^A,,,^A,,]3 [=A,,,=A,,]) .[G,,,G,,] z .[A,,,A,,] z | %282
 .[B,,,B,,]2 z2 !arpeggio![B,,^D,F,B,]2 z2 | [E,G,B,]4 z2 z3/2 [E,,E,]/ | !fermata![E,,E,]8 |] %285
V:3
 x8 | x8 | [^DF]4 [EG]4 | [^DF]8 ||[M:2/4] x4 | x4 | x4 | x4 | x4 | x4 | x4 | x4 | x4 | x4 | x4 | %15
 x4 | x4 | x4 | x4 | x4 || (A4 | G4) | (A4 | G4) | G2 A2 | x4 | x4 | x4 | ([A,^D]4 | G,4) | %30
 ([A,^D]4 | G,4- | G,2) !>!E2- | x4 | x4 | x4 | x2 !>![CE]2- | [CE]4 | x4 ||[M:2/4] x4 | x4 | %41
 x3 A, | x4 | x4 | x4 | (GE F2) | D z x2 | x4 | x4 | x4 | x4 | G2 x2 | x4 |!8va(! x4 | x!8va)! x3 | %55
 (^d4 | B3/2) x/ B2 | (^d4 | B4) | z (G A2- | A G2 F) | GE^DB, | [G,B,]2 x2 | ([A,^D]4 | G,2) z2 | %65
 ([A,^D]4 | G,4- | G,2) !>!E2- | E2 x2 | x4 | x4 | x2 [CE]2- | [CE]4 | x4 ||[M:2/4] x4 | x4 | x4 | %77
 x4 | x4 | x4 | x[K:bass] x3 | x4 |[K:treble] x4 | x4 | x4 | x4 | x4 | x3!8va(! x | x4 | %89
 x3!8va)! x ||[M:12/16] f/B/f/ g/B/f/ e/B/e/ b/B/g/ | f/B/f/ g/B/f/ e/B/e/ b/B/b/ | %92
 e/G/B/ d/A/c/ B/G/B/ c/E/F/ | G/E/B,/ ^D/B,/A,/ [G,B,]3/2 z3/2 | f/B/f/ g/B/f/ e/B/e/ b/B/g/ | %95
 f/B/f/ g/B/f/ e/B/e/ b/B/b/ | e/g/e/ ^g/b/g/ a/e'/a/ ^a/e'/!<(!a/ | x3!<)! x3 | x6 | x6 || %100
[K:E][M:2/4] G,4 | x4 | x4 | x4 | G2 F2 | E4 | !1!G4 | x4 | x4 | x4 | x4 | x4 | c2 B2 | A4 | %114
 !1!c4 | x4 | x4 | x4 |!8va(! x4 | x4 | x4 | x3!8va)! x | x4 | x4 | x4 | x4 | x4 | x4 | %128
 x7/2!8va(! x/ | x4 | x4 | x4 | x4 | x4 | x4 | x2!8va)! x2 | x4 | x4 | x4 | x4 | x4 | x4 | x4 | %143
 x4 | x4 | x4 | x3 ||[K:G][M:6/8] x | x6 | x6 | x6 | x6 |!8va(! x6 | x6 | x3!8va)! x3 | %155
 x3[K:bass] x3 | x2[K:treble] x (B2 f) | [Be]3- [Be] x2 | x6 | x3!8va(! x3 | x3!8va)! x3 | x6 | %162
!8va(! x6 | x2!8va)! x4 | (=c3 B) x z | x6 | (!>!=c3 B) x z | x6 | (!>!=f3 e) x z | x6 | %170
 (!>!=f3 e) x z | x6 | x6 | x6 | x11/2[K:bass] x/ | x6 | x6 | x6 ||[M:2/4][K:treble] x4 | x4 | x4 | %181
 x4 | x4 | x4 | x4 | x4 | x4 | x4 | x4 | x4 | x4 | x4 | x4 | x4 ||[K:E] g2 f2 | x4 | x4 | x4 | %198
 g2 f2 | x4 | x4 | x4 | x4 | x4 | x4 | x4 | x4 |!8va(! x4 | x4 | x4 | x4 | x4 | x2!8va)! x2 | x4 | %214
 x4 | x3/2!8va(! x5/2 | x4 | x4 | x4 | x4 | x2!8va)! x2 ||[K:G] x5/2 B/e/g/ | %222
 f/^c/e/f/ g/=c/^d/f/ | e/B/e/g/ b/B/e/g/ | f/^c/e/f/ g/=c/^d/f/ | e/B/e/g/ b/e/g/b/ | %226
 c'/c/e/a/ d'/d/c'/c/ | a/A/c/f/ a/A/^a/^A/ | b/B/d/f/ c'/c/b/B/ | g/G/B/e/ g/G/^g/^G/ | %230
 a/A/c/e/ b/B/a/A/ | f/F/A/^d/ f/F/f/F/ | g/G/^c/e/ g/G/f/F/ | g/G/^c/e/ g/G/e/G/ | %234
 e/F/=c/^d/ f/G/B/e/ | =d/E/A/c/ B/B,/A,/^D/ | [G,B,] x x/!8va(! b/e'/g'/ | %237
 f'/^c'/e'/f'/ g'/=c'/^d'/f'/ | e'/b/e'/g'/ b'/b/e'/g'/ | f'/^c'/e'/f'/ g'/=c'/^d'/f'/ | %240
 e'/b/e'/g'/ b'/e'/g'/b'/ | c''/c'/e'/a'/ d''/d'/c''/c'/ | a'/a/c'/f'/ a'/a/^a'/^a/ | %243
 b'/b/d'/f'/ c''/c'/b'/b/ | g'/g/b/e'/ g'/g/^g'/^g/ | a'/a/c'/e'/ b'/b/a'/a/ | %246
 f'/f/a/^d'/ f'/f/f'/f/ | g'/g/^c'/e'/ g'/g/e'/g/ | a'/a/=c'/f'/ a'/a/f'/a/ | x4 | x4 | %251
 z/ (e'/e''/e'/ ^d''/e'/=d''/e'/ | ^c''/e'/=c''/=f'/ a'/c'/f'/a/)!8va)! | x4 | x4 | x4 | %256
 x2[K:bass] x2 | x5/2[K:treble] x3/2 | B/E/^G/B/ c/E/G/B/ | ^A/E/=G/A/ e/E/G/e/ | %260
 z/ E/F/=A/ B/E/F/A/ | ^G/B,/E/G/ e/E/G/e/ | z/ (^C/E/=G/ =A/=C/E/G/ | F/=C/E/F/ c/C/E/F/) | x4 | %265
 x4 |[K:bass] x4 | x4 | x4 | x4 | x4 | x4 | x4 | x4 | x4 | x4 | x4 || %277
[M:4/4] z/ B,,/E,/G,/ B,/E,/G,/B,/ E/G,/B,/E/ G/A,/^D/F/ | %278
 [G,E]/B,/E/G/[K:treble] B/E/G/B/!<(! e/G/B/e/ g/A/^d/f/!<)! | %279
 [Ge]/B/e/g/ b/B/g/b/ e'/e/g/e'/ =f'/=f/c'/f'/ | x6!8va(! x2 | x8 | x2!8va)! x6 | x8 | x8 |] %285
V:4
 x8 | x8 | !>!B,8- | B,8 ||[M:2/4] x4 | x4 | x4 | x4 | x4 | x4 | x4 | x4 | x4 | x4 | x4 | x4 | x4 | %17
 x4 | x4 | x4 || x4 | x4 | x4 | x4 | x4 | x4 | x4 | x4 | x4 | x4 | x4 | x4 | x4 | x4 | x4 | x4 | %36
 x4 | x4 | x4 ||[M:2/4] x4 | x4 | x4 | x4 | x4 | x4 | x4 | x4 | x4 | x4 | x4 | x4 | x4 | x4 | %53
!8va(! x4 | x!8va)! x3 | x4 | x4 | x4 | x4 | x4 | x4 | x4 | x4 | x4 | x4 | x4 | x4 | x4 | x4 | x4 | %70
 x4 | x4 | x4 | x4 ||[M:2/4] x4 | x4 | x4 | x4 | x4 | x4 | x[K:bass] x3 | x4 |[K:treble] x4 | x4 | %84
 x4 | x4 | x4 | x3!8va(! x | x4 | x3!8va)! x ||[M:12/16] x6 | x6 | x6 | x6 | x6 | x6 | x6 | x6 | %98
 x6 | x6 ||[K:E][M:2/4] x4 | x4 | x4 | x4 | x4 | x4 | x4 | x4 | x4 | x4 | x4 | x4 | x4 | x4 | x4 | %115
 x4 | x4 | x4 |!8va(! x4 | x4 | x4 | x3!8va)! x | x4 | x4 | x4 | x4 | x4 | x4 | x7/2!8va(! x/ | %129
 x4 | x4 | x4 | x4 | x4 | x4 | x2!8va)! x2 | x4 | x4 | x4 | x4 | x4 | x4 | x4 | x4 | x4 | x4 | %146
 x3 ||[K:G][M:6/8] x | x6 | x6 | x6 | x6 |!8va(! x6 | x6 | x3!8va)! x3 | x3[K:bass] x3 | %156
 x2[K:treble] x4 | x6 | x6 | x3!8va(! x3 | x3!8va)! x3 | x6 |!8va(! x6 | x2!8va)! x4 | x6 | x6 | %166
 x6 | x6 | x6 | x6 | x6 | x6 | x6 | x6 | x11/2[K:bass] x/ | x6 | x6 | x6 ||[M:2/4][K:treble] x4 | %179
 x4 | x4 | x4 | x4 | x4 | x4 | x4 | x4 | x4 | x4 | x4 | x4 | x4 | x4 | x4 ||[K:E] x4 | x4 | x4 | %197
 x4 | x4 | x4 | x4 | x4 | x4 | x4 | x4 | x4 | x4 |!8va(! x4 | x4 | x4 | x4 | x4 | x2!8va)! x2 | %213
 x4 | x4 | x3/2!8va(! x5/2 | x4 | x4 | x4 | x4 | x2!8va)! x2 ||[K:G] x4 | x4 | x4 | x4 | x4 | x4 | %227
 x4 | x4 | x4 | x4 | x4 | x4 | x4 | x4 | x4 | x5/2!8va(! x3/2 | x4 | x4 | x4 | x4 | x4 | x4 | x4 | %244
 x4 | x4 | x4 | x4 | x4 | x4 | x4 | x4 | x4!8va)! | x4 | x4 | x4 | x2[K:bass] x2 | %257
 x5/2[K:treble] x3/2 | x4 | x4 | x4 | x4 | x4 | x4 | x4 | x4 |[K:bass] x4 | x4 | x4 | x4 | x4 | %271
 x4 | x4 | x4 | x4 | x4 | x4 ||[M:4/4] x8 | x2[K:treble] x6 | x8 | x6!8va(! x2 | x8 | x2!8va)! x6 | %283
 x8 | x8 |] %285
V:5
 x8 | x8 | x8 | x8 ||[M:2/4] E,2 F,2 | G,2 A,2 |[K:treble] x4 |[K:bass] x4 | F,4 | G,4 | x4 | G,4 | %12
 F,2 A,2 | E,2 G,2 | x4 | x4 | E,2 F,2 | x[K:treble] x3 | x4 |[K:bass] x4 || x4 | x4 | x4 | x4 | %24
 x4 | x4 | x4 | x4 | x4 | x4 | x4 | x4 | x4 | !>!A,,2 x2 | (B,,4 | C,2) z2 | x4 | x4 | x4 || %39
[M:2/4] !arpeggio![E,B,]2 !arpeggio![F,A,]2 | !arpeggio![G,B,]2 [A,C]2 | !arpeggio!C, z x x | x4 | %43
 x4 | x4 | x4 | x4 | (B,3 A, | G,2) ([D,_B,]2 | [^C,A,]4) | [D,F,]4 | x4 | x3[K:treble] x | %53
 (B3 [FA] | [EG]) x3 | x4 | x2[K:bass] x2 | x[K:treble] x3 | x4 |[K:bass] x4 | x4 | x4 | x4 | x4 | %64
 x4 | x4 | x4 | x4 | x4 | (B,,4 | C,2) z2 | x4 | x4 | x4 ||[M:2/4] x4 | x4 | x4 | x4 | x4 | x4 | %80
 x4 | x4 | x4 | x4 | A,4 | F,3 x | (([E,B,]2 [F,^A,]2)) | x4 |[K:treble] x4 | x4 || %90
[M:12/16][K:bass] x6 | x6 | x6 | x6 | x3/2[K:treble] x9/2 | x6 | x6 | x6 | x3/2[K:bass] x9/2 | %99
 x6 ||[K:E][M:2/4] E,,2 D,,2 | C,,2 A,,2 | B,,2 B,,2 | E,,2 x2 | D,4 | C,4 | G,,4 | C,4 | %108
 A,,2 G,,2 | F,,2 =D,2 | E,2 E,2 | x4 | G,4 | F,4 | C,4 | x4 | E,4 | D,4 | x4 | E,2 D,2 | %120
 C,2 B,,2 | x4 | x4 | x4 | A,4 |[K:treble] G,4 | A,4 | G,4 | E2 =D2 | C2 =C2 | x4 |[K:bass] x4 | %132
 !>!A,4 | !>!G,4 | !>!A,4 | !>!G,4 |[K:treble] A,4 |[K:bass] ^A,,4 | x4 | C,4 | ^A,,4 | B,,4 | %142
 B,,4 | C,4 | ^A,,4 | B,,4 | x3 ||[K:G][M:6/8] x | x6 | x6 | x2[K:treble] x4 |[K:bass] x6 | x6 | %153
 x6 | x6 | x6 | x6 | x6 | x3[K:treble] A,3 | D3- D x2 |[K:bass] ([E,B,]3 F,3) | B,2 x4 | x6 | x6 | %164
 E,3 ^D,3 | E, x5 | E,2 x ^D,2 x | E, x5 |[K:treble] A,3 ^G,3 | A,3 x3 | A,3 ^G,3 | !>!A,2 x x2 x | %172
 !>!B,2 x x2 x | x6 | x11/2[K:bass] x/ | x6 | x6 | x6 ||[M:2/4] x4 | x4 | x4 | x4 | x4 | x4 | x4 | %185
 E,2 D,2 | C,2 B,,2 | A,,2 G,,2 | C,2 B,,2 | A,,2 G,,2 | F,,2 E,,2 | ^D,,2 E,,2 | x4 | x4 || %194
[K:E] E,2 D,2 | C,2 A,2 | B,2 A,2 | G,2 F,2 | E,2 D,2 | C,2 ^A,,2 | B,,2 D,2 | x4 | ^A,,2 x2 | %203
 B,,2 x2 | x4 | E,2 B,,2 | E,2 B,,2 | E,2 B,,2 | E,2 B,,2 | F,2 B,,2 | E,2 B,,2 | D,2 B,,2 | %212
 C,2 D,2 | x4 | x4 | x4 | x4 | C,2 !>!=C,2 | !>!B,,2 ^A,,2 | A,,2 x2 | B,,2 x2 ||[K:G] x4 | E,4 | %223
 [E,G,]4 | E,4 | E,4 | x4 | x4 | x4 | x4 | x4 | x4 | x4 | ^A,,4 | !>!A,,2 !>!G,,2 | %235
 !>!A,,2 !>!B,,2 | x[K:treble] x3 | E4 | [EG]4 | E4 | [EG]4 | x4 |[K:bass] x[K:treble] x3 | x4 | %244
[K:bass] x[K:treble] x3 |[K:bass] x[K:treble] x3 |[K:bass] x[K:treble] x3 | !>!^A,4 | !>!A,4 | %249
 !>!^G,4 | !>!^G,4 | A,4 | A,4 | x4 | x4 |[K:bass] x4 | x4 | x4 | x4 | x4 | x4 | x4 | x4 | x4 | %264
 x4 | x4 | x4 | x4 | x4 | x4 | x4 | x4 | x4 | x4 | x4 | x4 | x4 ||[M:4/4] x8 | x8 | x8 | x8 | x8 | %282
 x8 | x8 | x8 |] %285

